X:50
T: Hardiman's
T: Joe Derrane's
S: De Danann
Z: B.Black
R: jig
M: 6/8
L: 1/8
K: D
A | BdB BAF | AFE EFE | DFA def | afe dBA |
BdB BAF | AFE EFE | DFA def | edB B2 :|
B | efe edB | AFF dFF | def afa | b2 b afe |
bff afa | baf edB | def afe | dBB B2 :|
